icons/nurse-fill.svg

<svg viewBox="0 0 24 24" fill="currentColor" xmlns="http://www.w3.org/2000/svg">
    <path d="M14.9571 15.564C17.6154 16.6219 19.5726 19.0639 19.9387 22H4.0625C4.42862 19.0639 6.38587 16.6219 9.04417 15.564L12.0006 20L14.9571 15.564ZM18.0006 2V8C18.0006 11.3137 15.3143 14 12.0006 14C8.6869 14 6.00061 11.3137 6.00061 8V2H18.0006ZM16.0006 8H8.00061C8.00061 10.2091 9.79147 12 12.0006 12C14.2098 12 16.0006 10.2091 16.0006 8Z"/>
</svg>

<svg xmlns="http://www.w3.org/2000/svg" viewBox="0 0 24 24">
    <g>
        <path fill="none" d="M0 0H24V24H0z"/>
        <path d="M14.956 15.564c2.659 1.058 4.616 3.5 4.982 6.436H4.062c.366-2.936 2.323-5.378 4.982-6.436L12 20l2.956-4.436zM18 2v6c0 3.314-2.686 6-6 6s-6-2.686-6-6V2h12zm-2 6H8c0 2.21 1.79 4 4 4s4-1.79 4-4z"/>
    </g>
</svg>
